src/layers.svg

<svg xmlns="http://www.w3.org/2000/svg" viewBox="0 0 20 20"><path d="M10 1l10 6-10 6L0 7l10-6zm6.67 10L20 13l-10 6-10-6 3.33-2L10 15l6.67-4z"/></svg>

<?xml version="1.0" encoding="UTF-8" standalone="no"?>
<svg width="20px" height="20px" viewBox="0 0 20 20" version="1.1" xmlns="http://www.w3.org/2000/svg" xmlns:xlink="http://www.w3.org/1999/xlink">
    <!-- Generator: Sketch 3.7.2 (28276) - http://www.bohemiancoding.com/sketch -->
    <title>layers</title>
    <desc>Created with Sketch.</desc>
    <defs></defs>
    <g id="Page-1" stroke="none" stroke-width="1" fill="none" fill-rule="evenodd">
        <g id="layers" fill="#000000">
            <path d="M10,1 L20,7 L10,13 L0,7 L10,1 Z M16.6666667,11 L20,13 L10,19 L0,13 L3.33333333,11 L10,15 L16.6666667,11 Z" id="Combined-Shape"></path>
        </g>
    </g>
</svg>
